Adwaita++-Dark/actions/16/category-search.svg

<svg height="16" viewBox="0 0 16 16" width="16" xmlns="http://www.w3.org/2000/svg">
  <path d="m8 3a4 4 0 0 0 -4 4 4 4 0 0 0 4 4 4 4 0 0 0 2.332031-.755859l3.027344 2.523437a1.0001 1.0001 0 1 0 1.28125-1.535156l-3.029297-2.5234376a4 4 0 0 0 .388672-1.7089844 4 4 0 0 0 -4-4zm-7 .0039062v2h2v-2zm7 1.9960938a2 2 0 0 1 2 2 2 2 0 0 1 -.03125.3398438 2 2 0 0 1 -1.2792969 1.5351562 2 2 0 0 1 -.1914062.0605469 2 2 0 0 1 -.1796875.0371093 2 2 0 0 1 -.0917969.0117188 2 2 0 0 1 -.1152344.0117188 2 2 0 0 1 -.0078125 0 2 2 0 0 1 -.1035156.0039062 2 2 0 0 1 -2-2 2 2 0 0 1 .0097656-.1992188 2 2 0 0 1 1.9902344-1.8007812zm-7 2.0039062v2h2v-2zm0 3.9999998v2h2v-2z" fill="#e6ddff"/>
</svg>

<svg xmlns="http://www.w3.org/2000/svg" width="16" height="16" version="1.1" viewBox="0 0 16 16">
 <path style="fill:#E6DDFF" d="M 8 3 A 4 4 0 0 0 4 7 A 4 4 0 0 0 8 11 A 4 4 0 0 0 10.332031 10.244141 L 13.359375 12.767578 A 1.0001 1.0001 0 1 0 14.640625 11.232422 L 11.611328 8.7089844 A 4 4 0 0 0 12 7 A 4 4 0 0 0 8 3 z M 1 3.0039062 L 1 5.0039062 L 3 5.0039062 L 3 3.0039062 L 1 3.0039062 z M 8 5 A 2 2 0 0 1 10 7 A 2 2 0 0 1 9.96875 7.3398438 A 2 2 0 0 1 8.6894531 8.875 A 2 2 0 0 1 8.4980469 8.9355469 A 2 2 0 0 1 8.3183594 8.9726562 A 2 2 0 0 1 8.2265625 8.984375 A 2 2 0 0 1 8.1113281 8.9960938 A 2 2 0 0 1 8.1035156 8.9960938 A 2 2 0 0 1 8 9 A 2 2 0 0 1 6 7 A 2 2 0 0 1 6.0097656 6.8007812 A 2 2 0 0 1 8 5 z M 1 7.0039062 L 1 9.0039062 L 3 9.0039062 L 3 7.0039062 L 1 7.0039062 z M 1 11.003906 L 1 13.003906 L 3 13.003906 L 3 11.003906 L 1 11.003906 z"/>
</svg>
